assets/svg/single/parenting.svg

<svg width="36" height="36" viewBox="0 0 36 36" fill="none" xmlns="http://www.w3.org/2000/svg">
<g opacity="0.8">
<path fill-rule="evenodd" clip-rule="evenodd" d="M7.16611 14.7221C7.99742 9.29048 13.117 5.83752 18 5.83752C22.883 5.83752 28.0026 9.29048 28.8339 14.7221C29.5909 14.8734 30.2928 15.2452 30.8467 15.7991C31.5852 16.5376 32 17.5391 32 18.5834C32 19.6276 31.5852 20.6292 30.8467 21.3676C30.2588 21.9556 29.504 22.3384 28.6936 22.47C27.9335 24.5663 26.572 26.3975 24.7735 27.7306C22.8139 29.1831 20.4392 29.9672 18 29.9672C15.5608 29.9672 13.1861 29.1831 11.2265 27.7306C9.42797 26.3975 8.06648 24.5663 7.30635 22.47C6.496 22.3384 5.74123 21.9556 5.15327 21.3676C4.41484 20.6292 4 19.6276 4 18.5834C4 17.5391 4.41484 16.5376 5.15327 15.7991C5.70717 15.2452 6.40912 14.8734 7.16611 14.7221ZM18 7.58752C13.6295 7.58752 9.20427 10.8235 8.82609 15.5901C8.78999 16.045 8.41024 16.3959 7.95383 16.3959H7.9375C7.35734 16.3959 6.80094 16.6263 6.3907 17.0366C5.98047 17.4468 5.75 18.0032 5.75 18.5834C5.75 19.1635 5.98047 19.7199 6.3907 20.1302C6.80094 20.5404 7.35734 20.7709 7.9375 20.7709H7.95383C8.33907 20.7709 8.67898 21.0228 8.79101 21.3914C9.39126 23.3662 10.6104 25.0957 12.2686 26.3247C13.9267 27.5538 15.936 28.2172 18 28.2172C20.064 28.2172 22.0733 27.5538 23.7314 26.3247C25.3896 25.0957 26.6087 23.3662 27.209 21.3914C27.321 21.0228 27.6609 20.7709 28.0462 20.7709H28.0625C28.6427 20.7709 29.1991 20.5404 29.6093 20.1302C30.0195 19.7199 30.25 19.1635 30.25 18.5834C30.25 18.0032 30.0195 17.4468 29.6093 17.0366C29.1991 16.6263 28.6427 16.3959 28.0625 16.3959H28.0462C27.5898 16.3959 27.21 16.045 27.1739 15.5901C26.7957 10.8235 22.3705 7.58752 18 7.58752Z" fill="#151931"/>
<path fill-rule="evenodd" clip-rule="evenodd" d="M17.1248 6.71226C17.125 6.22901 17.5168 5.83738 18.0001 5.83752C18.6417 5.83772 19.2709 6.01428 19.819 6.34791C20.367 6.68154 20.8128 7.15941 21.1077 7.72928C21.4025 8.29915 21.535 8.93909 21.4907 9.57918C21.4464 10.2193 21.227 10.8349 20.8565 11.3587C20.486 11.8825 19.9786 12.2944 19.3898 12.5494C18.801 12.8043 18.1535 12.8925 17.5179 12.8043C16.8824 12.7161 16.2833 12.4549 15.7862 12.0493C15.2891 11.6436 14.9131 11.1091 14.6992 10.5042C14.5381 10.0486 14.7769 9.54865 15.2325 9.38757C15.6881 9.22648 16.188 9.46525 16.3491 9.92086C16.4561 10.2233 16.6441 10.4906 16.8926 10.6934C17.1412 10.8962 17.4407 11.0268 17.7585 11.0709C18.0762 11.115 18.4 11.0709 18.6944 10.9434C18.9888 10.816 19.2425 10.61 19.4278 10.3481C19.613 10.0862 19.7227 9.7784 19.7449 9.45835C19.767 9.13831 19.7008 8.81834 19.5533 8.5334C19.4059 8.24846 19.183 8.00953 18.909 7.84272C18.635 7.6759 18.3204 7.58762 17.9996 7.58752C17.5163 7.58738 17.1247 7.19551 17.1248 6.71226Z" fill="#151931"/>
<path fill-rule="evenodd" clip-rule="evenodd" d="M15.0292 23.2547C15.3488 22.8922 15.9017 22.8575 16.2642 23.1771C16.7437 23.5998 17.361 23.8331 18.0002 23.8331C18.6395 23.8331 19.2567 23.5998 19.7362 23.1771C20.0987 22.8575 20.6516 22.8922 20.9712 23.2547C21.2908 23.6172 21.256 24.1701 20.8936 24.4897C20.0944 25.1943 19.0656 25.5831 18.0002 25.5831C16.9348 25.5831 15.906 25.1943 15.1069 24.4897C14.7444 24.1701 14.7096 23.6172 15.0292 23.2547Z" fill="#151931"/>
<path fill-rule="evenodd" clip-rule="evenodd" d="M20.625 15.9584C21.1082 15.9584 21.5 16.3501 21.5 16.8334C21.5 17.0654 21.5922 17.288 21.7563 17.4521C21.9204 17.6162 22.1429 17.7084 22.375 17.7084C22.6071 17.7084 22.8296 17.6162 22.9937 17.4521C23.1578 17.288 23.25 17.0654 23.25 16.8334C23.25 16.3501 23.6418 15.9584 24.125 15.9584C24.6082 15.9584 25 16.3501 25 16.8334C25 17.5296 24.7234 18.1972 24.2312 18.6895C23.7389 19.1818 23.0712 19.4584 22.375 19.4584C21.6788 19.4584 21.0111 19.1818 20.5188 18.6895C20.0266 18.1972 19.75 17.5296 19.75 16.8334C19.75 16.3501 20.1418 15.9584 20.625 15.9584Z" fill="#151931"/>
<path fill-rule="evenodd" clip-rule="evenodd" d="M11.875 15.9584C12.3582 15.9584 12.75 16.3501 12.75 16.8334C12.75 17.0654 12.8422 17.288 13.0063 17.4521C13.1704 17.6162 13.3929 17.7084 13.625 17.7084C13.8571 17.7084 14.0796 17.6162 14.2437 17.4521C14.4078 17.288 14.5 17.0654 14.5 16.8334C14.5 16.3501 14.8918 15.9584 15.375 15.9584C15.8582 15.9584 16.25 16.3501 16.25 16.8334C16.25 17.5296 15.9734 18.1972 15.4812 18.6895C14.9889 19.1818 14.3212 19.4584 13.625 19.4584C12.9288 19.4584 12.2611 19.1818 11.7688 18.6895C11.2766 18.1972 11 17.5296 11 16.8334C11 16.3501 11.3918 15.9584 11.875 15.9584Z" fill="#151931"/>
</g>
</svg>

<svg width="36" height="36" fill="none" xmlns="http://www.w3.org/2000/svg"><g opacity=".8" fill-rule="evenodd" clip-rule="evenodd" fill="#151931"><path d="M7.17 14.72C8 9.3 13.12 5.84 18 5.84s10 3.45 10.83 8.88a3.94 3.94 0 0 1-.14 7.75 11.37 11.37 0 0 1-21.38 0 3.94 3.94 0 0 1-.14-7.75ZM18 7.6c-4.37 0-8.8 3.23-9.17 8a.88.88 0 0 1-.88.8h-.01a2.19 2.19 0 1 0 0 4.38h.01c.39 0 .73.25.84.62a9.62 9.62 0 0 0 18.42 0 .87.87 0 0 1 .84-.62h.01a2.19 2.19 0 0 0 0-4.37h-.01a.88.88 0 0 1-.88-.81c-.37-4.77-4.8-8-9.17-8Z"/><path d="M17.12 6.71c0-.48.4-.87.88-.87a3.5 3.5 0 1 1-3.3 4.66.88.88 0 0 1 1.65-.58A1.75 1.75 0 1 0 18 7.6a.88.88 0 0 1-.88-.88ZM15.03 23.25a.87.87 0 0 1 1.23-.07 2.63 2.63 0 0 0 3.48 0 .87.87 0 1 1 1.15 1.31 4.38 4.38 0 0 1-5.78 0 .87.87 0 0 1-.08-1.24ZM20.63 15.96c.48 0 .87.39.87.87a.88.88 0 0 0 1.75 0 .87.87 0 1 1 1.75 0 2.63 2.63 0 0 1-5.25 0c0-.48.4-.87.88-.87ZM11.88 15.96c.48 0 .87.39.87.87a.88.88 0 0 0 1.75 0 .87.87 0 1 1 1.75 0 2.63 2.63 0 0 1-5.25 0c0-.48.4-.87.88-.87Z"/></g></svg>
